!!!COM: Scarlatti, Domenico
!!!CDT: 1685///-1757///
!!!OTL: Sonata in G Major, K.336, L.337
!!!SCT: K. 336
!!!SCT: L. 337
!!!OMD: Allegro
**kern	**kern	**dynam
*staff2	*staff1	*staff1/2
*Icemba	*Icemba	*Icemba
*>[A,A,B,B]	*>[A,A,B,B]	*>[A,A,B,B]
*>norep[A,B]	*>norep[A,B]	*>norep[A,B]
*>A	*>A	*>A
*clefF4	*clefG2	*clefG2
*k[f#c#]	*k[f#c#]	*k[f#c#]
*D:	*D:	*D:
*M3/8	*M3/8	*M3/8
*MM114	*MM114	*MM114
=1-	=1-	=1-
8r	4.aa^\	f
8f#'\L	.	.
8d'\J	.	.
=2	=2	=2
8r	4.ff#^\	.
8d'\L	.	.
8B'\J	.	.
=3	=3	=3
8r	4.dd^\	.
8B'\L	.	.
8G'\J	.	.
=4	=4	=4
8r	4.b^\	.
8G'\L	.	.
8E'\J	.	.
=5	=5	=5
(8E\L	(16gg\LL	.
.	16ff#\	.
8F#\	16ee\	.
.	16dd\	.
8G\J	16cc#\	.
.	16b\JJ	.
=6	=6	=6
8A\L	8a'/)	.
.	aq/	.
8B\	(4g/	.
8c#\J	.	.
=7	=7	=7
8d'\)	8f#'/L)	.
4D^\	(16a/L	.
.	16f#/	.
.	16dd/	.
.	16a/JJ	.
=8	=8	=8
(16d\LL	8ff#'\L)	.
16a\	.	.
16c#\	(8.ee\	.
16a\	.	.
16A\	.	.
16a\JJ	32ff#\LL	.
.	32gg\JJJ	.
=9	=9	=9
16d\LL	8ff#'\L)	.
16a\	.	.
16c#\	(8.ee\	.
16a\	.	.
16A\	.	.
16a\JJ	32ff#\LL	.
.	32gg\JJJ	.
=10	=10	=10
16d\LL	8ff#'\L)	.
16a\	.	.
16c#\	(8.ee\	.
16a\	.	.
16A\	.	.
16a\JJ	32ff#\LL	.
.	32gg\JJJ	.
=11	=11	=11
8d'\)	16ff#\LL	.
.	16ee\	.
4D^\	16dd\	.
.	16cc#\J	.
.	8dd'\J)	.
=12	=12	=12
(8e\L	(16gg\LL	.
.	16b\	.
8d#\	16ff#\	.
.	16b\	.
8f#\J	16aa\	.
.	16b\JJ	.
=13	=13	=13
8e\L	16gg\LL	.
.	16b\	.
8d#\	16ff#\	.
.	16b\	.
8f#\J	16aa\	.
.	16b\JJ	.
=14	=14	=14
8e\L	16gg\LL	.
.	16b\	.
8d#\	16ff#\	.
.	16b\	.
8f#\J	16aa\	.
.	16b\JJ	.
=15	=15	=15
8e'\)	16gg\LL	.
.	16ff#\	.
4E^\	16ee\)	.
.	(16aa\	.
.	16gg\	.
.	16ff#\JJ	.
=16	=16	=16
(8e\L	16ee\LL	.
.	16dd\	.
8f#\	16cc#\	.
.	16b\	.
8g\J	16a#\	.
.	16b\JJ	.
=17	=17	=17
*	*^	*
8e\L	8gg'/	16a#\LL	.
.	.	16b\	p
8f#\	8r	16a#\	.
.	.	16b\	.
8g\J	8r	16a#\	.
.	.	16b\JJ	.
=18	=18	=18	=18
8e\L	8gg/	16a#\LL	.
.	.	16b\	.
8f#\	8r	16a#\	.
.	.	16b\	.
8g\J	8r	16a#\	.
.	.	16b\JJ	.
*	*v	*v	*
=19	=19	=19
8f#'\L)	16a#\LL	<
.	16b\	(
8F#'\	16cc#\	(
.	16dd\	(
8f#'\J	16ee\	(
.	16ff#\JJ	[
=20	=20	=20
(8e\L	16gg\LL	>
.	16ee\	)
8d\	16ff#\	)
.	16dd\	)
8c#\J	16ee\	)
.	16cc#\JJ	)
=21	=21	=21
8B\L	16ff#\LL	)
.	16ee\	)
8c#\	16dd\	)
.	16cc#\	)
8d\J)	16b\	)
.	16an\JJ)	]
=22	=22	=22
*	*^	*
8E\ 8d\L	8ee'/	16g#\LL	p
.	.	16a\	.
8E\ 8d\	8r	16g#\	.
.	.	16a\	.
8E\ 8d\J	8r	16g#\	.
.	.	16a\JJ	.
=23	=23	=23	=23
8E\ 8d\L	8ee'/	16g#\LL	.
.	.	16a\	.
8E\ 8d\	8r	16g#\	.
.	.	16a\	.
8E\ 8d\J	8r	16g#\	.
.	.	16a\JJ	.
*	*v	*v	*
=24	=24	=24
8E\ 8d\L	(16g#\LL	<
.	16a\	(
8E\ 8d\	16b\	(
.	16cc#\	(
8E\ 8d\J	16dd\	(
.	16ee\JJ	(
=25	=25	=25
8E'\ 8d'\L	16ff#\LL	(
.	16dd\	(
8E'\ 8c#'\	16ee\	(
.	16cc#\	(
8E'\ 8B'\J	16dd\	(
.	16b\JJ	[
=26	=26	=26
(16A\LL	8cc#'\L)	f
16e\	.	.
16G#\	(8.b\	.
16e\	.	.
16E\	.	.
16e\JJ	32cc#\LL	.
.	32dd\JJJ	.
=27	=27	=27
16A\LL	8cc#'\L)	.
16e\	.	.
16G#\	(8.b\	.
16e\	.	.
16E\	.	.
16e\JJ	32cc#\LL	.
.	32dd\JJJ	.
=28	=28	=28
16A\LL	8cc#'\L)	.
16e\	.	.
16G#\	(8.b\	.
16e\	.	.
16E\	.	.
16e\JJ	32cc#\LL	.
.	32dd\JJJ	.
=29	=29	=29
8A'\L)	16cc#\LL	.
.	16a\	.
8B'\	16dd\	.
.	16b\	.
8c#'\J	16ee\	.
.	16cc#\JJ	.
=30	=30	=30
8d'\L	16ff#\LL	.
.	16dd\	.
8e'\	16gg#\	.
.	16ee\	.
8f#'\J	16aa\	.
.	16ff#\JJ	.
=31	=31	=31
8e'\	16bb\LL	.
.	16gg#\	.
4E^\	16ee\	.
.	16b\	.
.	16g#\	.
.	16b\JJ)	.
=32	=32	=32
*	*^	*
(16e\LL	4bb^/	(8gg#\L	f
16d\	.	.	.
16c#\	.	8ee\)	.
16B\	.	.	.
16c#\	8ccc#'/	8aa\J	.
16d\JJ	.	.	.
=33	=33	=33	=33
16e\LL	4bb^/	(8gg#\L	.
16d\	.	.	.
16c#\	.	8ee\)	.
16B\	.	.	.
16c#\	8ccc#'/	8aa\J	.
16d\JJ	.	.	.
=34	=34	=34	=34
16e\LL	4bb^/	(8gg#\L	.
16d\	.	.	.
16c#\	.	8ee\)	.
16B\	.	.	.
16c#\	8ccc#'/	8aa\J	.
16d\JJ	.	.	.
*	*v	*v	*
=35	=35	=35
8e'\L)	(16bb\LL	.
.	16aa\	.
8f#'\	16gg#\	.
.	16ff#\	.
8g#'\J	16ee\	.
.	16dd\JJ	.
=36	=36	=36
(8A\L	16cc#\LL	.
.	16gg#\	.
8B\	16aa\	.
.	16dd#\	.
8c#\J	16ee\	.
.	16a\JJ	.
=37	=37	=37
8d'\L)	8ff#'\)	.
(8e\	(4b\	.
8E\J)	.	.
=38	=38	=38
(16A\LL	8cc#\L)	p
16e\	.	.
16G#\	(8.b\	.
16e\	.	.
16E\	.	.
16e\JJ	32cc#\LL	.
.	32dd\JJJ	<
=39	=39	=39
16A\LL	8cc#\L)	(
16e\	.	(
16G#\	(8.b\	(
16e\	.	(
16E\	.	(
16e\JJ	32cc#\LL	(
.	32dd\JJJ	(
=40	=40	=40
16A\LL	8cc#\L)	(
16e\	.	(
16G#\	(8.b\	(
16e\	.	(
16E\	.	(
16e\JJ	32cc#\LL	(
.	32dd\JJJ	[
=41	=41	=41
8A'\L)	16cc#'\LL)	f
.	(16gg#\	.
8B'\	16aa\	.
.	16dd#\	.
8c#'\J	16ee\	.
.	16a\JJ	.
=42	=42	=42
8d'\L	8ff#'\)	.
(8e\	(4b\	.
8E\J)	.	.
=43	=43	=43
(16A\LL	8cc#'\L)	p
16e\	.	.
16G#\	(8.b\	.
16e\	.	.
16E\	.	.
16e\JJ	32cc#\LL	.
.	32dd\JJJ	.
=44	=44	=44
16A\LL	8cc#'\L)	<
16e'\	.	(
16G#\	(8.b\	(
16e\	.	(
16E\	.	(
16e\JJ	32cc#\LL	(
.	32dd\JJJ	(
=45	=45	=45
16A\LL	8cc#\L)	(
16e\	.	(
16G#\	(8.b\	(
16e\	.	(
16E\	.	(
16e\JJ	32cc#\LL	(
.	32dd\JJJ	[
=46	=46	=46
8A'\L)	16cc#'\LL)	f
.	(16gg#\	.
8B'\	16aa\	.
.	16dd#\	.
8c#'\J	16ee\	.
.	16a\JJ	.
=47	=47	=47
8D'/L	(8ff#'\)	.
(8E/	4b\	.
8EE/J)	.	.
=48	=48	=48
4.AA^/	4.a/)	.
=49:|!|:	=49:|!|:	=49:|!|:
*>B	*>B	*>B
4.AA'/	8a'/L	p
.	8a'/	.
.	8a'/J	.
=50	=50	=50
4.AA/	8gn'\ 8ee'\L	.
.	8g'\ 8ee'\	.
.	8g'\ 8ee'\J	.
=51	=51	=51
4.AA/	8fn'/ 8dd'/L	.
.	8f'/ 8dd'/	.
.	8f'/ 8dd'/J	.
=52	=52	=52
4.AA/	8e'/ 8ccn'/L	.
.	8e'/ 8cc'/	.
.	8e'/ 8cc'/J	.
=53	=53	=53
4.AA/	8d'/ 8b-'/L	.
.	8d'/ 8b-'/	.
.	8d'/ 8b-'/J	.
=54	=54	=54
8A'\L	(16a/LL	<
.	16b-/	(
8B'\	16a/	(
.	16g/	(
8c#'\J	16fn/	(
.	16e/JJ)	[
=55	=55	=55
4.d\	(8fn/L	mf
.	16e/L	.
.	16f/J	.
.	8d'/J)	.
=56	=56	=56
(4.d\	8ffn'\L	p
.	8ff'\	.
.	8ff'\J	.
=57	=57	=57
4.cn\	8ee'\ 8cccn'\L	.
.	8ee'\ 8ccc'\	.
.	8ee'\ 8ccc'\J	.
=58	=58	=58
4.e\	8ccn'\ 8bb-'\L	.
.	8cc'\ 8bb-'\	.
.	8cc'\ 8bb-'\J	.
=59	=59	=59
4.fn\	8ccn'\ 8aa'\L	.
.	8cc'\ 8aa'\	.
.	8cc'\ 8aa'\J	.
=60	=60	=60
*	*^	*
4.g\	(8aa/L	4.b\	mf
.	16gg/L	.	.
.	16ffn/	.	.
.	16ee/	.	.
.	16dd/JJ)	.	.
*	*v	*v	*
=61	=61	=61
4.cn\)	(8ee\L	>
.	16dd\L	)
.	16ee\J	)
.	8ccn'\J)	]
=62	=62	=62
4.A\	8aa'\L	p
.	8aa'\	.
.	8aa'\J	.
=63	=63	=63
4.A\	8gg'\ 8aa'\L	.
.	8gg'\ 8aa'\	.
.	8gg'\ 8aa'\J	.
=64	=64	=64
4.A\	8ffn'\ 8ddd'\L	.
.	8ff'\ 8ddd'\	.
.	8ff'\ 8ddd'\J	.
=65	=65	=65
4.A\	8ee'\ 8cccn'\L	.
.	8ee'\ 8ccc'\	.
.	8ee'\ 8ccc'\J	.
=66	=66	=66
(4.d\	8dd\ (8bb\L	mf
.	8ccn\ 8aa\)	.
.	8dd'\ 8bb'\J	.
=67	=67	=67
4.fn\	8ccn\ (8aa\L	.
.	8b\ 8gg#\)	.
.	8cc\ ([8aa\J	.
=68	=68	=68
*	*^	*
4.e\)	8aa/L]	4b\	>
.	16gg#/L	.	)
.	16ff#/J	.	)
.	8ee/J)	8r	]
=69	=69	=69	=69
(16e\LL	(8b/L	4g#\	mf
16d\	.	.	.
16cn\	8ee/)	.	.
16B\	.	.	.
16c\	8ccn'/J	8a'\	.
16d\JJ	.	.	.
=70	=70	=70	=70
16e\LL	(8b/L	4g#\	.
16d\	.	.	.
16cn\	8ee/)	.	.
16B\	.	.	.
16c\	8ccn'/J	8a'\	.
16d\JJ	.	.	.
=71	=71	=71	=71
16e\LL	(8b/L	4g#\	.
16d\	.	.	.
16cn\	8ee/)	.	.
16B\	.	.	.
16c\	8ccn'/J	8a'\	.
16d\JJ	.	.	.
*	*v	*v	*
=72	=72	=72
4.e\)	(16b/LL	.
.	16a/	.
.	16g#/	.
.	16f#/J	.
.	8e'/J)	.
=73	=73	=73
*	*^	*
(16A\LL	(8ee/L	4cc#\	f
16G\	.	.	.
16F#\	8aa/)	.	.
16E\	.	.	.
16F#\	8ff#'/J	8dd'\	.
16G\JJ	.	.	.
=74	=74	=74	=74
16A\LL	(8ee/L	4cc#\	.
16G\	.	.	.
16F#\	8aa/)	.	.
16E\	.	.	.
16F#\	8ff#'/J	8dd'\	.
16G\JJ	.	.	.
=75	=75	=75	=75
16A\LL	(8ee/L	4cc#\	.
16G\	.	.	.
16F#\	8aa/)	.	.
16E\	.	.	.
16F#\	8ff#'/J	8dd'\	.
16G\JJ	.	.	.
*	*v	*v	*
=76	=76	=76
4.A\)	(16ee\LL	.
.	16dd\	.
.	16cc#\	.
.	16b\J	.
.	8a'\J)	.
=77	=77	=77
(8d\L	(16ff#\LL	p
.	16a\	.
8c#\	16ee\	.
.	16a\	.
8e\J	16gg\	.
.	16a\JJ	.
=78	=78	=78
8d\L	16ff#\LL	.
.	16a\	.
8c#\	16ee\	.
.	16a\	.
8e\J	16gg\	.
.	16a\JJ	.
=79	=79	=79
8d\L	16ff#\LL	.
.	16a\	.
8c#\	16ee\	.
.	16a\	.
8e\J	16gg\	.
.	16a\JJ	.
=80	=80	=80
8D'\L)	16ff#\LL	.
.	16ee\	.
8E'\	16dd\	.
.	16ccn\	.
8F#'\J	16b\	.
.	16a\JJ	.
=81	=81	=81
(16G\LL	8b'/L)	mf
16d\	.	.
16F#\	(8.a/	.
16d\	.	.
16D\	.	.
16d\JJ	32b/LL	.
.	32ccn/JJJ	.
=82	=82	=82
16G\LL	8b'/L)	.
16d\	.	.
16F#\	(8.a/	.
16d\	.	.
16D\	.	.
16d\JJ	32b/LL	.
.	32ccn/JJJ	.
=83	=83	=83
16G\LL	8b'/L)	.
16d\	.	.
16F#\	(8.a/	.
16d\	.	.
16D\	.	.
16d\JJ	32b/LL	.
.	32ccn/JJJ	.
=84	=84	=84
8G'\L)	16b\LL	.
.	16dd\	.
8E'\	16cc#\	.
.	16ee\	.
8F#'\J	16dd\	.
.	16ff#\JJ	.
=85	=85	=85
(8G\L	16ee\LL	.
.	16gg\	.
8A'\)	16ff#\	.
.	16ee\	.
8AA'\J	16dd\	.
.	16cc#\JJ	.
=86	=86	=86
(16d\LL	8ff#'\L)	f
16a\	.	.
16c#\	(8.ee\	.
16a\	.	.
16A\	.	.
16a\JJ	32ff#\LL	.
.	32gg\JJJ	.
=87	=87	=87
16d\LL	8ff#'\L)	.
16a\	.	.
16c#\	(8.ee\	.
16a\	.	.
16A\	.	.
16a\JJ	32ff#\LL	.
.	32gg\JJJ	.
=88	=88	=88
16d\LL	8ff#'\L)	.
16a\	.	.
16c#\	(8.ee\	.
16a\	.	.
16A\	.	.
16a\JJ	32ff#\LL	.
.	32gg\JJJ	.
=89	=89	=89
8d'\L)	16ff#'\LL)	.
.	(16ccc#\	.
8e'\	16ddd\	.
.	16gg#\	.
8f#'\J	16aa\	.
.	16dd\JJ	.
=90	=90	=90
8G'\L	8bb'\)	.
(8A\	(4ee\	.
8AA\J)	.	.
=91	=91	=91
(16D\LL	8dd'/L)	.
16A\	.	.
16C#\	(8.e/	p
16A\	.	.
16AA\	.	.
16A\JJ	32f#/LL	.
.	32g/JJJ	.
=92	=92	=92
16D\LL	8f#'/L)	<
16A\	.	(
16C#\	(8.e/	(
16A\	.	(
16AA\	.	(
16A\JJ	32f#/LL	(
.	32g/JJJ	(
=93	=93	=93
16D\LL	8f#'/L)	(
16A\	.	(
16C#\	(8.e/	(
16A\	.	(
16AA\	.	(
16A\JJ	32f#/LL	(
.	32g/JJJ	[
=94	=94	=94
8D'\L)	16f#'\LL)	f
.	(16dd\	.
8E'\	16cc#\	.
.	16ee\	.
8F#'\J	16dd\	.
.	16a\JJ	.
=95	=95	=95
8G'\L	16b\LL	.
.	16g\J)	.
(8A\	(8.ee\	.
8AA\J	.	.
.	32dd\LL	.
.	32ee\JJJ	.
=96	=96	=96
8D'\L)	16ff#'\LL)	.
.	(16aa\	.
8E'\	16cc#\	.
.	16ee\	.
8F#'\J	16dd\	.
.	16a\JJ	.
=97	=97	=97
8G'\L	8b'\)	.
(8A\	(4e/	.
8AA\J)	.	.
=98	=98	=98
4.DD^/	4.d/)	.
==:|!	==:|!	==:|!
*-	*-	*-
!!!ENC: Craig Stuart Sapp
!!!END: 2004/10/30/
